static/assets/images/tokens/usr.svg

<svg width="256" height="256" viewBox="0 0 256 256" fill="none" xmlns="http://www.w3.org/2000/svg">
<path d="M256 127.973C256.022 153.311 248.515 178.084 234.432 199.154C230.647 204.818 226.432 210.145 221.837 215.096C219.951 217.129 218 219.097 215.99 221C204.675 231.706 191.44 240.314 176.893 246.327C153.524 255.962 127.823 258.469 103.031 253.533C79.3797 248.818 57.5667 237.529 40.0824 221C39.2241 220.189 38.3762 219.365 37.5391 218.528C36.3748 217.365 35.2347 216.181 34.1191 214.976C18.0927 197.678 7.13655 176.265 2.50777 153.085C-2.47958 128.274 0.00722885 102.543 9.65373 79.1441C19.3002 55.7454 35.6733 35.7302 56.7027 21.6292C75.9815 8.73211 98.4045 1.31085 121.576 0.15827C144.748 -0.994313 167.797 4.1651 188.263 15.0853C208.728 26.0054 225.84 42.2761 237.771 62.1591C249.701 82.042 256.002 104.79 256 127.973Z" fill="#4281A4"/>
<path fill-rule="evenodd" clip-rule="evenodd" d="M218.912 129.229C218.898 79.7568 181.495 38 124.363 38C76.9751 39.7175 36.566 74.9358 36.535 131.632L77.5374 172.236L34.1191 214.976C35.2347 216.181 36.3748 217.365 37.5391 218.528C38.3762 219.365 39.2241 220.189 40.0824 221H215.99C218 219.097 219.951 217.129 221.837 215.096L195.722 190.083C209.666 174.487 218.919 154.664 218.912 129.229ZM82.3876 177.039L118.046 212.352H46.5862L82.3876 177.039ZM46.7047 131.632L128.845 212.352H207.585L127.829 132.218L46.7047 131.632ZM124.363 45.6845C80.9938 47.0886 46.0155 81.6927 44.0048 124.909H124.363V45.6845ZM210.301 128.841C210.301 149.937 202.472 169.186 189.539 183.848L132.5 126.336V45.8124C175.937 48.5931 210.301 84.7055 210.301 128.841Z" fill="#F6E8D7"/>
</svg>

<svg xmlns="http://www.w3.org/2000/svg" fill="none" viewBox="0 0 256 256"><path fill="#4281A4" d="M256 127.973a127.9 127.9 0 0 1-34.163 87.123 128.1 128.1 0 0 1-44.944 31.231 128.14 128.14 0 0 1-73.862 7.206 128.1 128.1 0 0 1-68.912-38.557 127.93 127.93 0 0 1-31.611-61.891 127.87 127.87 0 0 1 7.146-73.94 128 128 0 0 1 47.049-57.516 128.14 128.14 0 0 1 131.56-6.544 128 128 0 0 1 49.508 47.074A127.9 127.9 0 0 1 256 127.973"/><path fill="#F6E8D7" fill-rule="evenodd" d="M218.912 129.229C218.898 79.757 181.495 38 124.363 38c-47.388 1.718-87.797 36.936-87.828 93.632l41.002 40.604-43.418 42.74A126 126 0 0 0 40.082 221H215.99a128 128 0 0 0 5.847-5.904l-26.115-25.013c13.944-15.596 23.197-35.419 23.19-60.854m-136.524 47.81 35.658 35.313h-71.46zm-35.683-45.407 82.14 80.72h78.74l-79.756-80.134zm77.658-85.947c-43.37 1.404-78.347 36.008-80.358 79.224h80.358zm85.938 83.156c0 21.096-7.829 40.345-20.762 55.007L132.5 126.336V45.812c43.437 2.781 77.801 38.894 77.801 83.029" clip-rule="evenodd"/></svg>
